images/additional-icons/zoom-100-percent.svg

<svg width="18" height="18" viewBox="0 0 18 18" xmlns="http://www.w3.org/2000/svg" xmlns:xlink="http://www.w3.org/1999/xlink"><title>zoom-100-percent</title><desc>Created with Sketch.</desc><defs><path id="a" d="M8.354 17h8.354v-16.707h-16.707v16.708h8.354z"/></defs><g fill="none"><g transform="translate(1) translate(0 .707)"><mask id="b"><use xlink:href="#a"/></mask><path d="M16.414 15.293l-3.815-3.816c.876-1.169 1.401-2.615 1.401-4.184 0-3.86-3.141-7-7-7s-7 3.14-7 7 3.141 7 7 7c1.569 0 3.016-.526 4.185-1.402l3.815 3.816c.195.195.451.293.707.293.256 0 .512-.098.707-.293.391-.391.391-1.023 0-1.414m-9.414-3c-2.757 0-5-2.243-5-5s2.243-5 5-5 5 2.243 5 5-2.243 5-5 5" fill="#6F6F6F" mask="url(#b)"/></g><path d="M8 11c-.55 0-1-.45-1-1v-4c0-.55.45-1 1-1s1 .45 1 1v4c0 .55-.45 1-1 1m-1-2h2c.55 0 1 .45 1 1s-.45 1-1 1h-2c-.55 0-1-.45-1-1s.45-1 1-1m.854-1.587l.707-.707c.389-.389.389-1.025 0-1.414s-1.025-.389-1.414 0l-.707.707c-.389.389-.389 1.025 0 1.414s1.025.389 1.414 0" fill="#6F6F6F"/></g></svg>

<?xml version="1.0" encoding="UTF-8" standalone="no"?>
<svg width="18px" height="18px" viewBox="0 0 18 18" fill="red" version="1.1" xmlns="http://www.w3.org/2000/svg" xmlns:xlink="http://www.w3.org/1999/xlink">
  <path transform="translate(0.000000, 0.707000)" d="M16.414,15.293 L12.599,11.477 C13.475,10.308 14,8.862 14,7.293 C14,3.433 10.859,0.293 7,0.293 C3.141,0.293 0,3.433 0,7.293 C0,11.153 3.141,14.293 7,14.293 C8.569,14.293 10.016,13.767 11.185,12.891 L15,16.707 C15.195,16.902 15.451,17 15.707,17 C15.963,17 16.219,16.902 16.414,16.707 C16.805,16.316 16.805,15.684 16.414,15.293 M7,12.293 C4.243,12.293 2,10.05 2,7.293 C2,4.536 4.243,2.293 7,2.293 C9.757,2.293 12,4.536 12,7.293 C12,10.05 9.757,12.293 7,12.293"></path>
  <path d="M7,11 L7,11 C6.45,11 6,10.55 6,10 L6,6 C6,5.45 6.45,5 7,5 C7.55,5 8,5.45 8,6 L8,10 C8,10.55 7.55,11 7,11"></path>
  <path d="M6,9 L8,9 C8.55,9 9,9.45 9,10 C9,10.55 8.55,11 8,11 L6,11 C5.45,11 5,10.55 5,10 C5,9.45 5.45,9 6,9"></path>
  <path d="M6.8535,7.413 L7.5605,6.706 C7.9495,6.317 7.9495,5.681 7.5605,5.292 C7.1715,4.903 6.5355,4.903 6.1465,5.292 L5.4395,5.999 C5.0505,6.388 5.0505,7.024 5.4395,7.413 C5.8285,7.802 6.4645,7.802 6.8535,7.413"></path>
</svg>
